X: 129
T: Belle of Lexington
B: canberra pickers and fiddlers
B: old time tunes update
B: tunes
M:C|
L:1/8
Q: 1/4=100
K:D
V:1 
fe \
|: d2 Bd A2 [F2A2] | {E/F/}EDFE D B,2 B, | A,B,DF dBAc | B(e e)e egfe |
   d2 Bd A2 [F2A2] | {E/F/}EDFE D B,2 B, | A,B, D2 dBAF | D3 D D2 :|
|: fg | a2 fa bafd | efdf edBd | AB d2 eafd | e2 e4 fg |
   a2 fa bafd | efdf edBA | fe d2 dBAF | D6 :|
% abcbook-tune_id 67a7d9ecb134694a4f1d3445
% abcbook-tune_composer_id 
% abcbook-link-0 https://www.youtube.com/watch?v=q-xbZjoNbs0
% abcbook-link-title-0 Erynn Marshall &amp; Carl Jones play &quot;Belle of Lexington&quot;
% abcbook-link-start-at-0 26
% abcbook-link-end-at-0 142
% abcbook-boost 0
% abcbook-difficulty 0
% abcbook-tags old time tunes
% abcbook-tablature 
% abcbook-transpose 
% abcbook-tuning ADAE
% abcbook-lastupdated 1739066339746
% abcbook-src-url 
% abcbook-soundfonts 
% abcbook-repeats 1
% Titles One title
% Transcriptions Only 1 transcription
% Movement Has some stepwise movement
% Mode major
% Key D
% Time_signature 2/2
% Text Has source text
% Text Has notes text
% Has_accompaniment_chords No chords

